X: 24358
T: Lounge Bar, The
R: jig
M: 6/8
K: Dmajor
A,|:B,DF E2D-|DFA d2c|B2B AFD|EGF E2D|
B,DF E2D-|DFA d2c|BGB AFD|1 EFE D2D:|2 EFE DFA||
|:d3 dcA|F3FEF|GBd dcA|E3 EDE|
F3 FED|B,3 B,A,B,|CDE EFE|D3 DFA:|
|:dBd c2B-|Bdf e2A|dcB AcB|AFD E2D|
dBd c2B-|Bdf e2A|dcB AFD|EFE DFA:|
|:d3 dcA|F3FEF|GBd dcA|E3 EDE|
F3 FED|B,3 B,A,B,|CDE EFE|1 D3 DFA:|2 D6||

